X: 13
T: Heather Breeze, The
Z: UPipes & harp
S: https://thesession.org/tunes/411#setting49916
R: reel
M: 4/4
L: 1/8
K: Gmaj
|DGBG dGBG | DFAF cFAF | DGBG dGBG | (3Bcd cA dBcA |
DGBG dGBG | DFAF cFAF | DGBG dGBG | (3Bcd cA BG G2 ||
|~g3f gbag | f3e fgaf | g3f gbag| fdcA dBcA |
g3f gbag | f3e fgaf | ~g3 a (3bag ag | fdcA BG G2 ||

